X: 30721
T: PINK HORNPIPE
C:
%R: hornpipe, reel
B: Elias Howe "The Musician's Companion" Part 3 1844 p.72 #1
S: http://imslp.org/wiki/The_Musician's_Companion_(Howe,_Elias)
Z: 2015 John Chambers <jc:trillian.mit.edu>
M: 2/4
L: 1/16
K: D
% - - - - - - - - - - - - - - - - - - - - - - - - -
A,2 |\
D2FA dcAF | GFED CEA,2 | EA,CA, E2EE | GFED CECA, |\
D2FA dcBA | GFED CEA,2 | EA,CA, E2EF | GEDC D2 :|
|: f2 |\
fefd ceae | dBed dcBA | BABG FAdF | GEAG GFED |\
fefd ceac | dBed dcBA | BABG FA/B/cd | BGEC D2 :|
% - - - - - - - - - - - - - - - - - - - - - - - - -
